!!!OTL: Der grausame Bruder Konung och Drottning de talades vid under lide'
!!!ARE: Nordeuropa, Sverige
!!!YOR: 3, S. 258
!!    ????
!!!SCT: Q2068C
!!!YEM: Copyright 1995, estate of Helmut Schaffrath.
**kern
*ICvox
*Ivox
*M2/4
*k[b-e-]
*g:
=1
{4g
8a
8a
=2
4b-
8b-
8a
=3
4b-
8cc
8cc
=4
4dd
8a
8cc
=5
4b-
4a
=6
4.r}
{8a
=7
4a
8b-
8cc
=8
4dd
8a
8cc
=9
4b-
8f#
8f#
=10
4g}
{4a
=11
8b-
8cc
8dd
8ee-
=12
4dd
8f#
8a
=13
4a
4g}
==
!!!AGN: Ballade, Schwangerschaft, Moral, Mord
!! Schwedische Fassung der Ballade.
!!!ONB: ESAC (Essen Associative Code) Database: BALLADE
!!!AMT: simple duple
!!!AIN: vox
!!!EED: Helmut Schaffrath
!!!EEV: 1.0
*-
